lib/logo_tmp/nrk-logo-nrk-p3-urort-title-below.svg

<svg width="89" height="36" viewBox="0 0 89 36" fill="none" xmlns="http://www.w3.org/2000/svg">
<path fill-rule="evenodd" clip-rule="evenodd" d="M0 0H36V36H0V0ZM11.6261 15.9996H8.30763V28.0565H11.6261V15.9996ZM15.8336 15.9996H12.1071C12.1071 15.9996 14.2243 19.4706 14.2482 19.5143C14.4104 19.7895 14.4203 19.9584 14.2619 20.224L12.1071 23.7517H15.8336C15.8336 23.7517 17.6305 20.8171 17.8762 20.4098C18.1201 20.0022 18.1091 19.7489 17.8664 19.3305C17.6186 18.9089 17.6024 18.8826 16.1465 16.5096L16.1462 16.5091L16.1456 16.5082L16.1451 16.5073L16.1445 16.5063L16.1439 16.5054L15.8336 15.9996ZM26.2699 15.9996C26.2699 15.9996 27.3789 17.784 27.5043 17.9972C27.7477 18.4169 27.7587 18.6708 27.514 19.0797C27.3431 19.3631 25.877 21.7894 25.877 21.7894C26.1457 22.2279 26.5036 22.8014 26.8179 23.305L26.8182 23.3054C27.141 23.8226 27.4176 24.2659 27.5041 24.4131C27.7476 24.8327 27.7586 25.0867 27.514 25.4956C27.4676 25.5724 27.3737 25.7301 27.2505 25.937L27.2482 25.9408L27.2479 25.9413C26.9164 26.4977 26.3752 27.4063 25.9772 28.0565H22.5723L24.4366 24.9966L22.503 21.7555L24.237 18.918H20.0364L18.2941 15.9996H26.2699ZM19.8318 22.191C19.307 23.0472 18.4291 24.4818 18.2648 24.7617C18.0303 25.1659 18.0197 25.4105 18.2554 25.8043C18.4198 26.0772 19.3047 27.5233 19.8319 28.3846C20.3592 27.5232 21.244 26.0771 21.4085 25.8043C21.6441 25.4103 21.6335 25.1659 21.3991 24.7617C21.2345 24.4818 20.3565 23.0472 19.8318 22.191ZM8.30763 7.43136V14.2139H10.5337V7.43136H8.30763ZM14.8424 14.2139L13.5622 8.51083C13.5007 8.20894 13.3371 7.93743 13.099 7.74186C12.8613 7.53772 12.5573 7.42729 12.2439 7.43136H10.8776L12.4062 14.2139H14.8424ZM15.1768 7.43136V14.2139H17.4028V7.43136H15.1768ZM18.4012 9.82912C18.6082 9.95021 18.8441 10.013 19.084 10.0107C19.0839 10.0107 19.0839 10.0106 19.0838 10.0106H19.0841C19.0841 10.0106 19.084 10.0107 19.084 10.0107C19.3225 10.0134 19.5572 9.95064 19.7624 9.82912C19.9647 9.71003 20.1326 9.54051 20.2497 9.33714C20.3708 9.13004 20.4336 8.89405 20.4314 8.65415C20.434 8.41571 20.3711 8.18112 20.2497 7.97589C20.1313 7.77474 19.9636 7.60705 19.7624 7.48869C19.5572 7.36739 19.3226 7.3046 19.0841 7.30717C18.8443 7.30498 18.6083 7.36772 18.4012 7.48869C18.198 7.60603 18.0285 7.77385 17.9091 7.97589C17.7876 8.18106 17.7247 8.41569 17.7275 8.65415C17.7251 8.89407 17.7879 9.1301 17.9091 9.33714C18.0272 9.5414 18.1969 9.71107 18.4012 9.82912ZM20.7753 7.43136V14.2139H23.0015V7.43136H20.7753ZM25.963 11.3719C25.8737 11.2224 25.826 11.1444 25.8197 11.1379H25.8194C25.751 11.0463 25.7112 10.9367 25.7049 10.8226C25.7089 10.714 25.7419 10.6084 25.8004 10.5168L27.6922 7.4312H25.2465C25.0937 7.67979 24.9551 7.90587 24.8307 8.10945C24.7069 8.31325 24.5749 8.53139 24.4346 8.76384C24.2942 8.99629 24.1556 9.22397 24.0187 9.44687C23.8817 9.66977 23.7623 9.8624 23.6604 10.0248C23.5585 10.1872 23.4884 10.3003 23.4502 10.3639C23.3596 10.5007 23.307 10.6589 23.2975 10.8226C23.3093 10.9932 23.3653 11.1578 23.4598 11.3003C23.4979 11.3577 23.5664 11.4691 23.6653 11.6346C23.7638 11.8 23.8816 11.9926 24.0187 12.2125C24.1557 12.4325 24.2943 12.6586 24.4346 12.8908C24.5745 13.1233 24.7065 13.3398 24.8307 13.5404C24.9549 13.741 25.0935 13.9655 25.2465 14.2139H27.6922C27.5136 13.921 27.3544 13.6583 27.2146 13.4258C27.0742 13.1932 26.9245 12.9464 26.7654 12.6854C26.6062 12.4244 26.455 12.1776 26.3117 11.9451C26.1685 11.7124 26.0523 11.5213 25.963 11.3719Z" fill="white"/>
<path d="M52.0531 18.4664C52.0615 19.0545 51.9919 19.6412 51.8461 20.2111C51.7298 20.6744 51.5108 21.1056 51.2054 21.4728C50.8993 21.8193 50.5088 22.0808 50.0718 22.2318C49.5292 22.4147 48.9587 22.5014 48.3862 22.4881C47.7191 22.5032 47.0557 22.386 46.4342 22.1431C45.8881 21.9186 45.4405 21.506 45.1725 20.9799C44.8523 20.2861 44.7035 19.5254 44.7388 18.7621V10.0093H42.6688V19.0985C42.6466 19.9162 42.7978 20.7293 43.1127 21.4843C43.3814 22.107 43.8015 22.6525 44.3349 23.0713C44.8718 23.481 45.4851 23.7793 46.1388 23.9486C46.8464 24.1355 47.5755 24.2282 48.3074 24.2243C49.4068 24.2672 50.499 24.0297 51.4814 23.5343C52.284 23.1005 52.9291 22.4244 53.3247 21.6023C53.7436 20.6878 53.9491 19.6901 53.9256 18.6845V10.0103H52.0528L52.0531 18.4664Z" fill="white"/>
<path d="M60.9837 13.8831C60.6149 13.9817 60.2627 14.1346 59.9388 14.3366C59.6024 14.5464 59.2915 14.7944 59.0122 15.0758C58.9656 15.1222 58.9202 15.1744 58.8742 15.223V13.7547L56.8634 14.0504V24.0061H58.8742V16.5584C59.0236 16.4539 59.1783 16.357 59.3375 16.2682C59.5348 16.1598 59.739 16.0643 59.9487 15.9824C60.1522 15.9035 60.3592 15.8345 60.5697 15.7754C60.786 15.7151 61.0069 15.6723 61.2301 15.6472C61.469 15.621 61.7097 15.6144 61.9497 15.6275L62.1862 13.7747C61.7821 13.7455 61.376 13.7821 60.9837 13.8831Z" fill="white"/>
<path d="M72.4771 13.4984L71.3731 14.6635C71.228 14.5554 71.0766 14.456 70.9197 14.3658C70.0956 13.9271 69.1717 13.7098 68.2385 13.7353C67.3002 13.714 66.3726 13.9381 65.5475 14.3855C64.7859 14.8118 64.1631 15.4483 63.7535 16.2189C63.3082 17.0836 63.0879 18.0465 63.1128 19.0187C63.0875 19.9842 63.2973 20.9414 63.7239 21.8079C63.837 22.0225 63.967 22.2278 64.1126 22.4217L63.0142 23.5924L63.9211 24.4201L64.9725 23.2839C65.1241 23.3972 65.283 23.5002 65.4483 23.5924C66.2529 24.0147 67.152 24.225 68.0604 24.2032C69.0049 24.2231 69.9385 23.999 70.7711 23.5527C71.5492 23.1229 72.1886 22.4801 72.6144 21.6998C73.0784 20.8269 73.3093 19.849 73.2847 18.8607C73.3074 17.9194 73.0939 16.9875 72.6637 16.1499C72.5467 15.9354 72.4129 15.7305 72.2635 15.5372L73.403 14.3264L72.4771 13.4984ZM65.5968 16.9093C65.8179 16.4156 66.1863 16.0024 66.6515 15.7264C67.1423 15.454 67.6971 15.3179 68.2582 15.3321C68.7044 15.3219 69.1478 15.4059 69.5594 15.5786C69.781 15.6782 69.9856 15.8122 70.1656 15.9755L65.5791 20.929C65.3235 20.2841 65.202 19.5938 65.2222 18.9004C65.1988 18.2172 65.3268 17.5373 65.5968 16.9093ZM70.8014 20.9701C70.5759 21.4799 70.2013 21.9094 69.7269 22.2022C69.2513 22.4777 68.7092 22.6175 68.1597 22.6067C67.6148 22.6194 67.0778 22.4757 66.6121 22.1927C66.4809 22.1083 66.3582 22.0113 66.2457 21.9032L70.8346 16.9487C70.9029 17.1058 70.9609 17.2671 71.0084 17.4317C71.1382 17.9102 71.2012 18.4043 71.1957 18.9001C71.219 19.6112 71.0844 20.3186 70.8014 20.9714V20.9701Z" fill="white"/>
<path d="M79.9287 13.8831C79.56 13.9818 79.2079 14.1346 78.8839 14.3366C78.5476 14.5464 78.2366 14.7945 77.9573 15.0758C77.9107 15.1222 77.8653 15.1744 77.8193 15.223V13.7547L75.8085 14.0504V24.0061H77.8193V16.5584C77.9687 16.4539 78.1234 16.357 78.2826 16.2682C78.4799 16.1598 78.684 16.0643 78.8937 15.9824C79.0975 15.9035 79.3045 15.8345 79.5147 15.7754C79.7311 15.7152 79.952 15.6724 80.1752 15.6472C80.4141 15.621 80.6548 15.6144 80.8948 15.6275L81.1313 13.7747C80.7272 13.7455 80.3211 13.7821 79.9287 13.8831Z" fill="white"/>
<path d="M88.4851 22.3603C88.3928 22.3797 88.2909 22.3997 88.1792 22.4191L87.8444 22.4782C87.7366 22.4974 87.6279 22.5106 87.5188 22.5177C87.4136 22.5246 87.3147 22.5275 87.223 22.5275C86.9209 22.5359 86.6209 22.4753 86.3458 22.3501C86.1091 22.238 85.9129 22.0555 85.7839 21.8277C85.6458 21.5706 85.5778 21.2818 85.5868 20.9901V15.5289H88.3665L88.5836 13.9518H85.5868V10.8366L83.5759 11.5463V13.9518H82.0579L81.841 15.5289H83.5759V21.4038C83.5671 21.7957 83.6271 22.186 83.7533 22.5571C83.8549 22.8507 84.0123 23.1218 84.2169 23.3555C84.4044 23.5638 84.6325 23.7315 84.8872 23.8484C85.1479 23.9681 85.4227 24.0542 85.705 24.1047C85.9847 24.1562 86.2684 24.1826 86.5527 24.1835C86.763 24.1835 86.9697 24.1769 87.1741 24.1641C87.3785 24.1513 87.5648 24.1313 87.7359 24.1047C87.9071 24.078 88.0675 24.0485 88.2186 24.0163C88.3698 23.9841 88.4979 23.9538 88.603 23.9272L88.7216 22.2913C88.6448 22.3205 88.5657 22.3436 88.4851 22.3603Z" fill="white"/>
</svg>

<svg xmlns="http://www.w3.org/2000/svg" viewBox="0 0 89 36"><path fill="#fff" fill-rule="evenodd" d="M0 0h36v36H0V0Zm11.626 16H8.308v12.056h3.318V16Zm4.208 0h-3.727s2.117 3.47 2.141 3.514c.162.276.172.444.014.71l-2.155 3.528h3.727s1.797-2.935 2.042-3.342c.244-.408.233-.661-.01-1.08-.247-.421-.264-.447-1.72-2.82v-.002l-.002-.002-.31-.506Zm10.436 0s1.109 1.784 1.234 1.997c.244.42.255.674.01 1.083l-1.637 2.71c.269.438.627 1.011.94 1.515h.001c.323.518.6.96.686 1.108.244.42.255.674.01 1.083l-.264.441-.002.004c-.332.557-.873 1.465-1.27 2.116h-3.406l1.865-3.06-1.934-3.241 1.734-2.838h-4.2L18.293 16h7.976Zm-6.438 6.191a373.19 373.19 0 0 0-1.567 2.57c-.235.405-.245.65-.01 1.043.165.273 1.05 1.72 1.577 2.58.527-.86 1.412-2.307 1.576-2.58.236-.394.226-.638-.009-1.042-.165-.28-1.043-1.715-1.567-2.571ZM8.308 7.431v6.783h2.226V7.43H8.308Zm6.534 6.783-1.28-5.703a1.342 1.342 0 0 0-.463-.77 1.287 1.287 0 0 0-.855-.31h-1.366l1.528 6.783h2.436Zm.335-6.783v6.783h2.226V7.43h-2.226ZM18.4 9.83c.207.121.443.184.683.182.239.002.473-.06.678-.182a1.356 1.356 0 0 0 .67-1.175 1.304 1.304 0 0 0-.182-.678 1.374 1.374 0 0 0-.488-.487 1.305 1.305 0 0 0-.678-.182 1.364 1.364 0 0 0-1.175.669c-.121.205-.184.44-.181.678a1.347 1.347 0 0 0 .674 1.175Zm2.374-2.398v6.783h2.227V7.43h-2.227Zm5.188 3.94a5.124 5.124 0 0 0-.143-.233.58.58 0 0 1-.115-.315.61.61 0 0 1 .095-.306l1.892-3.086h-2.445a305.985 305.985 0 0 0-.812 1.333 107.797 107.797 0 0 1-.985 1.6.928.928 0 0 0-.152.459c.011.17.067.335.162.477.038.058.106.17.205.335.099.165.217.358.354.578.137.22.275.446.416.678.14.232.271.449.396.65l.416.673h2.445a150.16 150.16 0 0 1-.477-.788 198.775 198.775 0 0 0-.903-1.48c-.143-.234-.26-.425-.349-.574Z" clip-rule="evenodd"/><path fill="#fff" d="M52.053 18.466a6.656 6.656 0 0 1-.207 1.745 3.186 3.186 0 0 1-.64 1.262 2.68 2.68 0 0 1-1.134.759 4.92 4.92 0 0 1-1.686.256 5.048 5.048 0 0 1-1.952-.345 2.47 2.47 0 0 1-1.261-1.163 4.767 4.767 0 0 1-.434-2.218V10.01h-2.07v9.09a5.79 5.79 0 0 0 .444 2.385 4.065 4.065 0 0 0 1.222 1.587c.537.41 1.15.708 1.804.878.707.186 1.436.28 2.168.275a6.487 6.487 0 0 0 3.174-.69 4.33 4.33 0 0 0 1.844-1.932 6.634 6.634 0 0 0 .6-2.918V10.01h-1.872v8.456ZM60.984 13.883a3.858 3.858 0 0 0-1.045.454c-.337.21-.648.457-.927.739-.046.046-.092.098-.138.147v-1.468l-2.01.295v9.956h2.01v-7.448a5.192 5.192 0 0 1 1.075-.576c.203-.079.41-.148.62-.207a4.212 4.212 0 0 1 1.38-.148l.237-1.852c-.404-.03-.81.007-1.202.108ZM72.477 13.498l-1.104 1.166a4.578 4.578 0 0 0-.453-.298 5.393 5.393 0 0 0-2.681-.63 5.389 5.389 0 0 0-2.692.65 4.547 4.547 0 0 0-1.793 1.833 5.791 5.791 0 0 0-.641 2.8 5.961 5.961 0 0 0 .61 2.789c.114.215.244.42.39.614l-1.099 1.17.907.828 1.051-1.136c.152.113.311.216.476.308a5.345 5.345 0 0 0 2.612.611 5.493 5.493 0 0 0 2.711-.65 4.675 4.675 0 0 0 1.843-1.853c.464-.873.695-1.851.67-2.84a5.636 5.636 0 0 0-.62-2.71 4.618 4.618 0 0 0-.4-.613l1.139-1.21-.926-.829Zm-6.88 3.411c.22-.493.59-.907 1.055-1.183a3.147 3.147 0 0 1 1.606-.394c.446-.01.89.074 1.301.247.222.1.427.233.607.396l-4.587 4.954a5.103 5.103 0 0 1-.357-2.029 4.64 4.64 0 0 1 .375-1.99ZM70.8 20.97c-.225.51-.6.94-1.074 1.232a3.009 3.009 0 0 1-1.567.405 2.852 2.852 0 0 1-1.548-.414 2.413 2.413 0 0 1-.366-.29l4.589-4.954c.068.157.126.318.173.483.13.478.193.972.188 1.468a4.811 4.811 0 0 1-.395 2.071ZM79.929 13.883c-.369.099-.721.252-1.045.454-.336.21-.647.457-.927.739-.046.046-.092.098-.138.147v-1.468l-2.01.295v9.956h2.01v-7.448a5.19 5.19 0 0 1 1.074-.576c.204-.079.412-.148.622-.207a4.239 4.239 0 0 1 1.38-.148l.236-1.852c-.404-.03-.81.007-1.202.108ZM88.485 22.36c-.092.02-.194.04-.306.06l-.335.058a2.95 2.95 0 0 1-.325.04c-.105.007-.204.01-.296.01a1.984 1.984 0 0 1-.877-.178 1.27 1.27 0 0 1-.562-.522 1.662 1.662 0 0 1-.197-.838V15.53h2.78l.217-1.577h-2.997v-3.115l-2.011.71v2.405h-1.518l-.217 1.577h1.735v5.875c-.009.392.051.782.177 1.153.102.294.26.565.464.799.187.208.415.375.67.492.26.12.536.206.818.257.28.051.563.078.848.078.21 0 .417-.006.621-.019.204-.013.39-.033.562-.06a8.883 8.883 0 0 0 .867-.177l.119-1.636c-.077.03-.156.053-.237.07Z"/></svg>
